X:94
T: Der Morgenstern
N: A0109
O: Europa, Mitteleuropa, Deutschland
N: Frankf. Gsgb. von Gesius "O Christe Morgensterne" und bei M.
N: Praetorius, Mus. Sion. VII. 1609 No. 69.
R: Romanze, Ballade, Lied
M: 3/2
L: 1/2
K: F
F | F2FF2D | C2GG2
G | A2B2GG | F2
A | B2BB2A | G3G2
G | A2ccBA | G2
G | A2B2GG | F2

